X:116
T: Totenlied (2-18) S. 61
N: P0891
O: Lothringen
S: PINCK, Louis: Verklingende Weisen, Bd 2, Metz 1928]
R: geistliche, religise Lieder, Tod]
M: 2/4
L: 1/8
K: F
F2 | F2G2 | A2BA | G2AG | F2
FF | GGGG | c2BA | G2AG | F2

@@@ Tune index: 7666
